assets/svgs/food-drink/food-fruit/FoodFruit2.svg

<svg id="emoji" viewBox="0 0 72 72" xmlns="http://www.w3.org/2000/svg">
  <g id="color">
    <path fill="#fcea2b" stroke="none" stroke-linecap="round" stroke-miterlimit="10" stroke-width="2" d="M16.0302,55.9368 c-1.5967-1.6729-1.9362-4.0928-1.0184-6.0812c-4.2565-8.3473-1.6753-20.2596,6.9544-28.8894s20.542-11.211,28.8894-6.9545 c2.026-0.9351,4.4999-0.5649,6.1752,1.1104c1.6753,1.6753,2.0455,4.1493,1.1104,6.1752 c4.2661,8.3571,1.6753,20.2596-6.9545,28.8894s-20.5323,11.2207-28.8894,6.9544c-2.026,0.9351-4.5,0.5649-6.1753-1.1103 C16.091,55.9998,16.0604,55.9684,16.0302,55.9368"/>
    <path fill="#f4aa41" stroke="none" d="M50.5556,50.0124c-8.631,8.631-20.5347,11.2212-28.8945,6.9571c34.6828,0,36.3371-35.1456,36.3371-35.1456 C62.2716,30.1744,59.1772,41.3815,50.5556,50.0124z"/>
    <path fill="#f4aa41" stroke="none" d="M30.4541,59.9883C27.1777,59.9883,20,57,20,57l-2.5-1.0303h4.1611 c13.9883,0,24.1807-5.7363,30.2949-17.0479c4.5869-8.4883,5.0391-17.0591,5.043-17.1445l0.1768-3.7549l1.7129,3.3462 c4.4639,8.7231,1.4707,20.2446-7.626,29.3511l0,0C45.2627,56.7197,37.5732,59.9883,30.4541,59.9883z M26.9287,57.6855 c7.4531,1.3506,16.2686-1.7285,22.9199-8.3799c7.0859-7.0947,10.2578-16.001,8.5996-23.3125 C56.8193,34.8408,50.5293,55.0566,26.9287,57.6855z"/>
    <path fill="#f4aa41" stroke="none" d="M56.9613,14.9006c0,0,1.8262,4.8233,0.9674,7.234L53.828,18.034L56.9613,14.9006"/>
    <path fill="#f4aa41" stroke="none" d="M16.1679,57.1214c0,0,5.0539,1.0283,7.2955-0.2063l-4.7058-3.3893L16.1679,57.1214"/>
  </g>
  <g id="hair"/>
  <g id="skin"/>
  <g id="skin-shadow"/>
  <g id="line">
    <path fill="none" stroke="#000000" stroke-linecap="round" stroke-miterlimit="10" stroke-width="2" d="M16.0302,55.9368 c-1.5967-1.6729-1.9362-4.0928-1.0184-6.0812c-4.2565-8.3473-1.6753-20.2596,6.9544-28.8894s20.542-11.211,28.8894-6.9545 c2.026-0.9351,4.4999-0.5649,6.1752,1.1104c1.6753,1.6753,2.0455,4.1493,1.1104,6.1752 c4.2661,8.3571,1.6753,20.2596-6.9545,28.8894s-20.5323,11.2207-28.8894,6.9544c-2.026,0.9351-4.5,0.5649-6.1753-1.1103 C16.091,55.9998,16.0604,55.9684,16.0302,55.9368"/>
    <path fill="none" stroke="#000000" stroke-linecap="round" stroke-miterlimit="10" stroke-width="2" d="M16.0302,55.9368 c-1.5967-1.6729-1.9362-4.0928-1.0184-6.0812c-4.2565-8.3473-1.6753-20.2596,6.9544-28.8894s20.542-11.211,28.8894-6.9545 c2.026-0.9351,4.4999-0.5649,6.1752,1.1104c1.6753,1.6753,2.0455,4.1493,1.1104,6.1752 c4.2661,8.3571,1.6753,20.2596-6.9545,28.8894s-20.5323,11.2207-28.8894,6.9544c-2.026,0.9351-4.5,0.5649-6.1753-1.1103 C16.091,55.9998,16.0604,55.9684,16.0302,55.9368"/>
  </g>
</svg>

<svg xmlns="http://www.w3.org/2000/svg" viewBox="0 0 72 72"><path fill="#fcea2b" d="M16.03 55.937a5.479 5.479 0 01-1.018-6.081c-4.257-8.348-1.675-20.26 6.954-28.89s20.542-11.21 28.89-6.954a5.48 5.48 0 016.175 1.11 5.48 5.48 0 011.11 6.175c4.266 8.357 1.675 20.26-6.954 28.89s-20.533 11.22-28.89 6.954a5.48 5.48 0 01-6.267-1.204"/><path fill="#f4aa41" d="M50.556 50.012C41.925 58.643 30.02 61.234 21.66 56.97c34.683 0 36.337-35.145 36.337-35.145 4.274 8.35 1.18 19.558-7.442 28.188z"/><path fill="#f4aa41" d="M30.454 59.988C27.178 59.988 20 57 20 57l-2.5-1.03h4.161c13.988 0 24.18-5.737 30.295-17.048 4.587-8.488 5.04-17.06 5.043-17.145l.177-3.755 1.713 3.347c4.464 8.723 1.47 20.244-7.626 29.35-6 6-13.69 9.27-20.809 9.27zm-3.525-2.303c7.453 1.351 16.268-1.728 22.92-8.38 7.086-7.094 10.257-16 8.6-23.312-1.63 8.848-7.92 29.064-31.52 31.692z"/><path fill="#f4aa41" d="M56.961 14.9s1.827 4.824.968 7.235l-4.101-4.101 3.133-3.133M16.168 57.121s5.054 1.029 7.295-.206l-4.705-3.39-2.59 3.596"/><g fill="none" stroke="#000" stroke-linecap="round" stroke-miterlimit="10" stroke-width="2"><path d="M16.03 55.937a5.479 5.479 0 01-1.018-6.081c-4.257-8.348-1.675-20.26 6.954-28.89s20.542-11.21 28.89-6.954a5.48 5.48 0 016.175 1.11 5.48 5.48 0 011.11 6.175c4.266 8.357 1.675 20.26-6.954 28.89s-20.533 11.22-28.89 6.954a5.48 5.48 0 01-6.267-1.204"/><path d="M16.03 55.937a5.479 5.479 0 01-1.018-6.081c-4.257-8.348-1.675-20.26 6.954-28.89s20.542-11.21 28.89-6.954a5.48 5.48 0 016.175 1.11 5.48 5.48 0 011.11 6.175c4.266 8.357 1.675 20.26-6.954 28.89s-20.533 11.22-28.89 6.954a5.48 5.48 0 01-6.267-1.204"/></g></svg>
